dist/img/menu/menu-icon2.svg

<svg width="22" height="28" viewBox="0 0 22 28" fill="none" xmlns="http://www.w3.org/2000/svg">
<path d="M15.4089 20H6.59108C6.26463 20 6 20.3209 6 20.7166C6 21.1124 6.26463 21.4332 6.59108 21.4332H15.4089C15.7354 21.4332 16 21.1124 16 20.7166C16 20.3209 15.7354 20 15.4089 20Z" fill="#29006C"/>
<path d="M15.4089 22.9962H6.59108C6.26463 22.9962 6 23.3171 6 23.7129C6 24.1086 6.26463 24.4295 6.59108 24.4295H15.4089C15.7354 24.4295 16 24.1086 16 23.7129C16 23.3171 15.7354 22.9962 15.4089 22.9962Z" fill="#29006C"/>
<path d="M13.891 12.4135C13.879 12.4127 12.7912 12.458 12.4974 11.2813C12.8944 10.9688 13.2275 10.5347 13.4655 10.0161C13.4831 10.0179 13.5008 10.0201 13.5182 10.0201C13.6803 10.02 13.8372 9.94622 13.9403 9.81375C14.4394 9.17271 14.699 8.34037 14.6712 7.47004C14.6134 5.66563 13.3581 4.24316 11.8111 4.22643C11.7688 4.22473 11.7312 4.22582 11.7007 4.22692L11.6985 4.22697C11.3232 4.06432 10.9278 3.98811 10.5203 4.0015C9.64929 4.02933 8.85008 4.46081 8.27011 5.21649C7.71437 5.94052 7.42564 6.88264 7.45719 7.86959C7.46255 8.03656 7.47578 8.19052 7.49699 8.33638C7.55456 8.7566 7.67047 9.15942 7.84148 9.53355C7.92365 9.71337 8.09839 9.83326 8.29587 9.84507C8.34961 9.84852 8.40237 9.843 8.4531 9.8308C8.69514 10.4307 9.06084 10.9299 9.50315 11.2785C9.21519 12.4533 8.12102 12.4129 8.10905 12.4136C6.93966 12.4519 6 13.4144 6 14.5929V16.7587C6 17.0541 6.23947 17.2936 6.53492 17.2936H15.4651C15.7605 17.2936 16 17.0541 16 16.7587V14.5929C16.0001 13.4143 15.0603 12.4518 13.891 12.4135ZM8.56349 8.23573C8.56103 8.21938 8.55868 8.20293 8.55638 8.18647C8.54042 8.07647 8.53063 7.96149 8.52658 7.83514C8.50286 7.09477 8.71318 6.39611 9.11885 5.86775C9.50003 5.37105 10.0101 5.08801 10.5547 5.07057C10.5727 5.06997 11.0001 5.03613 11.3597 5.24864C11.435 5.29314 11.5272 5.30643 11.6142 5.3043C11.6252 5.30402 11.7855 5.29593 11.7936 5.29599C12.752 5.30227 13.5634 6.29283 13.6021 7.5041C13.6065 7.64286 13.601 7.77998 13.5859 7.91409C13.2319 7.30646 12.706 6.83595 12.0802 6.57281C11.9458 6.51633 11.794 6.51715 11.6601 6.57516C11.5263 6.63322 11.4219 6.7435 11.3713 6.88034C11.33 6.99198 11.2798 7.10078 11.2223 7.20384C11.0818 7.45501 10.7945 7.60311 10.4724 7.593C10.4083 7.59081 10.3436 7.5907 10.2799 7.59273C9.96644 7.60279 9.66077 7.66254 9.3692 7.77118C9.07796 7.88118 8.80727 8.03732 8.56349 8.23573ZM9.30895 9.01214C9.44448 8.91198 9.59341 8.83789 9.74502 8.77294C10.0214 8.65441 10.395 8.66087 10.4354 8.66229C11.1244 8.68569 11.7534 8.36328 12.1034 7.81404C12.3764 8.02316 12.6018 8.30484 12.759 8.63861C12.5933 9.83906 11.8462 10.7523 10.9985 10.7523C10.2422 10.7523 9.56334 10.0369 9.30895 9.01214ZM10.4844 11.7618C10.6518 11.8013 10.8236 11.8221 10.9985 11.8221C11.175 11.8221 11.3479 11.8011 11.5159 11.762C11.6882 12.3124 12.0503 12.7796 12.5248 13.0875C12.2966 13.7155 11.6928 14.1557 11.0001 14.1557C10.3073 14.1557 9.70358 13.7155 9.47532 13.0874C9.94988 12.7795 10.312 12.3123 10.4844 11.7618ZM7.06989 16.2237V14.5928C7.06989 13.98 7.56845 13.4815 8.18127 13.4815C8.19352 13.4815 8.38865 13.4703 8.47224 13.459C8.85309 14.4979 9.85311 15.2256 11 15.2256C12.1469 15.2256 13.147 14.4979 13.5278 13.459C13.6115 13.4703 13.8065 13.4815 13.8187 13.4815C14.4316 13.4815 14.9301 13.9801 14.9301 14.5928V16.2237H7.06989Z" fill="#29006C"/>
<path d="M19.9363 0H2.06369C0.925786 0 0 0.964403 0 2.14977V25.8502C0 27.0356 0.925786 28 2.06369 28H19.9363C21.0742 28 22 27.0356 22 25.8502V2.14977C22 0.964403 21.0742 0 19.9363 0ZM20.6242 25.8502C20.6242 26.2453 20.3156 26.5668 19.9363 26.5668H2.06369C1.68439 26.5668 1.37577 26.2453 1.37577 25.8502V2.1497C1.37577 1.75458 1.68439 1.43309 2.06369 1.43309H19.9363C20.3156 1.43309 20.6242 1.75458 20.6242 2.1497V25.8502Z" fill="#29006C"/>
</svg>

<svg width="22" height="28" fill="none" xmlns="http://www.w3.org/2000/svg"><path d="M15.409 20H6.59c-.326 0-.591.32-.591.717 0 .395.265.716.591.716h8.818c.326 0 .591-.32.591-.716 0-.396-.265-.717-.591-.717zm0 2.996H6.59c-.326 0-.591.321-.591.717 0 .396.265.716.591.716h8.818c.326 0 .591-.32.591-.716 0-.396-.265-.717-.591-.717zm-1.518-10.582c-.012-.001-1.1.044-1.394-1.133.397-.312.73-.746.969-1.265a.535.535 0 00.475-.202c.498-.641.758-1.474.73-2.344-.058-1.804-1.313-3.227-2.86-3.244h-.11l-.003.001a2.714 2.714 0 00-1.178-.226c-.87.028-1.67.46-2.25 1.215-.556.725-.844 1.667-.813 2.654.006.167.019.32.04.466.058.42.173.823.344 1.198a.535.535 0 00.612.297c.242.6.608 1.099 1.05 1.447-.288 1.175-1.382 1.135-1.394 1.136-1.17.038-2.109 1-2.109 2.179v2.166c0 .295.24.535.535.535h8.93c.296 0 .535-.24.535-.535v-2.166c0-1.179-.94-2.141-2.109-2.18zM8.563 8.236a3.127 3.127 0 01-.037-.4c-.023-.741.187-1.44.593-1.968.381-.497.891-.78 1.436-.797.018-.001.445-.035.805.178a.48.48 0 00.254.055l.18-.008c.958.006 1.77.997 1.808 2.208.005.139-.001.276-.016.41a3.176 3.176 0 00-1.506-1.341.535.535 0 00-.709.307 2.26 2.26 0 01-.149.324c-.14.251-.428.4-.75.389a2.863 2.863 0 00-1.103.178c-.291.11-.562.266-.806.465zm.746.776c.135-.1.284-.174.436-.24.276-.118.65-.111.69-.11.69.024 1.318-.299 1.668-.848.273.21.499.49.656.825-.166 1.2-.913 2.113-1.76 2.113-.757 0-1.436-.715-1.69-1.74zm1.175 2.75a2.234 2.234 0 001.032 0 2.46 2.46 0 001.009 1.325A1.626 1.626 0 0111 14.157c-.693 0-1.296-.44-1.525-1.069a2.46 2.46 0 001.01-1.325zM7.07 16.224v-1.631c0-.613.498-1.111 1.111-1.111.013 0 .208-.012.291-.023A2.699 2.699 0 0011 15.226a2.699 2.699 0 002.528-1.767c.083.011.278.023.29.023.614 0 1.112.498 1.112 1.11v1.632H7.07z" fill="#29006C"/><path d="M19.936 0H2.064C.926 0 0 .964 0 2.15v23.7C0 27.036.926 28 2.064 28h17.872C21.074 28 22 27.036 22 25.85V2.15C22 .964 21.074 0 19.936 0zm.688 25.85c0 .395-.308.717-.688.717H2.064c-.38 0-.688-.322-.688-.717V2.15c0-.395.308-.717.688-.717h17.872c.38 0 .688.322.688.717v23.7z" fill="#29006C"/></svg>
